U-commodities/img/partners/megawatt.svg

<svg width="160" height="40" viewBox="0 0 160 40" fill="none" xmlns="http://www.w3.org/2000/svg">
<path d="M59.4799 19.7935H56.296V25.4415C55.2261 26.0633 53.9837 26.3741 52.5685 26.3741C51.3088 26.3741 50.1785 26.0978 49.1776 25.5451C48.194 24.9924 47.4175 24.2324 46.848 23.2652C46.2957 22.2979 46.0197 21.2098 46.0197 20.0008C46.0197 18.7572 46.2957 17.6517 46.848 16.6845C47.4175 15.7173 48.194 14.9659 49.1776 14.4305C50.1785 13.8951 51.3175 13.6274 52.5945 13.6274C54.5444 13.6274 56.2097 14.3182 57.5902 15.7L59.7129 13.6274C58.8673 12.6601 57.8232 11.9261 56.5807 11.4252C55.3383 10.9243 53.9578 10.6738 52.4391 10.6738C50.5754 10.6738 48.8929 11.0797 47.3915 11.8915C45.9075 12.686 44.7426 13.7914 43.8971 15.2078C43.0516 16.6241 42.6288 18.2217 42.6288 20.0008C42.6288 21.7798 43.0516 23.3775 43.8971 24.7938C44.7426 26.21 45.9075 27.3241 47.3915 28.1359C48.8757 28.9304 50.5409 29.3277 52.3874 29.3277C53.6989 29.3277 54.9759 29.129 56.2184 28.7318C57.4608 28.3346 58.548 27.7645 59.4799 27.0218V19.7935Z" fill="#64708B"/>
<path d="M18.5796 29.0686L18.5537 17.0472L12.6002 26.9959H11.0988L5.14529 17.2027V29.0686H1.93555V10.9329H4.70524L11.9013 22.9543L18.9678 10.9329H21.7376L21.7635 29.0686H18.5796Z" fill="#64708B"/>
<path d="M40.2474 29.0686V26.2446H30.0228V21.2444H38.772V18.4722H30.0228V13.7569H39.8851V10.9329H26.6578V29.0686H40.2474Z" fill="#64708B"/>
<path fill-rule="evenodd" clip-rule="evenodd" d="M66.6101 24.8715L64.824 29.0686H61.3554L69.5091 10.9329H72.8225L81.0021 29.0686H77.4818L75.6698 24.8715H66.6101ZM74.5567 22.2288L71.1399 14.301L67.7489 22.2288H74.5567Z" fill="#64708B"/>
<path d="M108.554 11.027L102.549 29.1627H98.9762L94.4985 15.7423L89.9427 29.1627H86.3447L80.3393 11.027H83.8338L88.3378 24.8101L93.023 11.027H96.129L100.711 24.8879L105.344 11.027H108.554Z" fill="#64708B"/>
<path fill-rule="evenodd" clip-rule="evenodd" d="M113.406 24.9656L111.62 29.1627H108.152L116.306 11.027H119.618L127.798 29.1627H124.278L122.466 24.9656H113.406ZM121.353 22.323L117.936 14.3951L114.545 22.323H121.353Z" fill="#64708B"/>
<path d="M132.869 13.8769H126.863V11.027H142.239V13.8769H136.233V29.1627H132.869V13.8769Z" fill="#64708B"/>
<path d="M148.692 13.8769H142.687V11.027H158.063V13.8769H152.057V29.1627H148.692V13.8769Z" fill="#64708B"/>
</svg>

<svg width="160" height="40" fill="none" xmlns="http://www.w3.org/2000/svg"><path d="M59.48 19.794h-3.184v5.648c-1.07.621-2.312.932-3.727.932-1.26 0-2.39-.276-3.391-.829a6.155 6.155 0 01-2.33-2.28c-.552-.967-.828-2.055-.828-3.264 0-1.244.276-2.35.828-3.317a5.967 5.967 0 012.33-2.254c1-.535 2.14-.803 3.416-.803 1.95 0 3.616.691 4.996 2.073l2.123-2.073a8.127 8.127 0 00-3.132-2.202c-1.243-.5-2.623-.751-4.142-.751-1.864 0-3.546.406-5.047 1.218a8.843 8.843 0 00-3.495 3.316c-.845 1.416-1.268 3.014-1.268 4.793 0 1.779.423 3.377 1.268 4.793.846 1.416 2.01 2.53 3.495 3.342 1.484.794 3.149 1.192 4.995 1.192 1.312 0 2.589-.199 3.831-.596 1.243-.397 2.33-.967 3.262-1.71v-7.228zm-40.9 9.275l-.026-12.022-5.954 9.949h-1.5l-5.954-9.793v11.866h-3.21V10.933h2.77l7.196 12.021 7.067-12.021h2.77l.026 18.136H18.58zm21.667 0v-2.824H30.023v-5h8.749v-2.773h-8.75v-4.715h9.863v-2.824H26.658v18.136h13.59z" fill="#64708B"/><path fill-rule="evenodd" clip-rule="evenodd" d="M66.61 24.872l-1.786 4.197h-3.469l8.154-18.136h3.314l8.18 18.136h-3.521l-1.812-4.197h-9.06zm7.947-2.643L71.14 14.3l-3.391 7.928h6.808z" fill="#64708B"/><path d="M108.554 11.027l-6.005 18.136h-3.573L94.5 15.743l-4.556 13.42h-3.598L80.34 11.027h3.495l4.504 13.783 4.685-13.783h3.106l4.582 13.86 4.633-13.86h3.21z" fill="#64708B"/><path fill-rule="evenodd" clip-rule="evenodd" d="M113.406 24.966l-1.786 4.197h-3.468l8.154-18.136h3.312l8.18 18.136h-3.52l-1.812-4.197h-9.06zm7.947-2.643l-3.417-7.928-3.391 7.928h6.808z" fill="#64708B"/><path d="M132.869 13.877h-6.006v-2.85h15.376v2.85h-6.006v15.286h-3.364V13.877zm15.823 0h-6.005v-2.85h15.376v2.85h-6.006v15.286h-3.365V13.877z" fill="#64708B"/></svg>
